X: 8245
T: Corchran's Mill
R: reel
M: 4/4
K: Cmajor
CDEG cAGE|DA,CD EA,A,A,|CDEG cdec|ddcd ec c2|
CDEG cAGE|D/D/D CD EA,A,A,|CDEG cdec|cdcd eccA||
cdeg a/a/age|a/a/age eddg|ecc/c/c dAcG|AcGE EDDG|
cdeg a/a/age|a/a/age eddg|(3ege dc AEGE|DCDE ECC2||

